X:1
M: C
T: Wisconsin Course
Q:1/4=160
L:1/8
K: C
V:1
|:"C"E_E=EG2A2G|"F"F2ED2EC2|"C"E_E=EG2C2(D|"G"D4) z4|
|"C"E_E=EG2A2B|"F"c2AF2ED2|"G"EDCD2B,2(C|"C"C4) z4:|

